Newaita/actions/32/document-preview-archive.svg

<svg height="32" viewBox="0 0 32 32" width="32" xmlns="http://www.w3.org/2000/svg"><g fill="#424242"><path d="m4.628906 15.464844h7.941406c.363282 0 .660157.296875.660157.660156 0 .367188-.296875.664062-.660157.664062h-7.941406c-.363281 0-.660156-.296874-.660156-.664062 0-.363281.296875-.660156.660156-.660156zm0 0"/><path d="m19.125 16.125c-3.636719 0-6.5625 2.929688-6.5625 6.566406v.101563c0 3.636719 2.925781 6.5625 6.5625 6.5625h.101562c3.636719 0 6.566407-2.925781 6.566407-6.5625v-.101563c0-3.636718-2.929688-6.566406-6.566407-6.566406zm.019531 2.648438h.0625c2.183594 0 3.9375 1.753906 3.9375 3.9375v.0625c0 2.179687-1.753906 3.9375-3.9375 3.9375h-.0625c-2.179687 0-3.9375-1.757813-3.9375-3.9375v-.0625c0-2.183594 1.757813-3.9375 3.9375-3.9375zm0 0"/><path d="m24.386719 24.25 4.585937 2.644531c.316406.183594.421875.589844.242188.90625l-.664063 1.144531c-.183593.316407-.585937.425782-.902343.242188l-4.582032-2.644531c-.316406-.183594-.425781-.589844-.242187-.90625l.660156-1.144531c.183594-.316407.585937-.425782.902344-.242188zm0 0"/><path d="m5.292969 2.894531c-1.464844 0-2.648438 1.183594-2.648438 2.648438v21.167969c0 1.464843 1.183594 2.644531 2.648438 2.644531h4.628906v-2.644531h-3.308594c-.730469 0-1.320312-.589844-1.320312-1.324219v-18.523438c0-.730469.589843-1.320312 1.320312-1.320312h18.523438c.734375 0 1.324219.589843 1.324219 1.320312v6.617188h2.644531v-7.9375c0-1.464844-1.179688-2.648438-2.644531-2.648438zm0 0"/></g></svg>

<svg xmlns="http://www.w3.org/2000/svg" xmlns:xlink="http://www.w3.org/1999/xlink" width="32px" height="32px" viewBox="0 0 32 32" version="1.1">
<g id="surface1">
     <defs>
  <style id="current-color-scheme" type="text/css">
   .ColorScheme-Text { color:#424242; } .ColorScheme-Highlight { color:#eeeeee; }
  </style>
 </defs>
<path style="fill:currentColor" class="ColorScheme-Text" d="M 4.628906 15.464844 L 12.570312 15.464844 C 12.933594 15.464844 13.230469 15.761719 13.230469 16.125 C 13.230469 16.492188 12.933594 16.789062 12.570312 16.789062 L 4.628906 16.789062 C 4.265625 16.789062 3.96875 16.492188 3.96875 16.125 C 3.96875 15.761719 4.265625 15.464844 4.628906 15.464844 Z M 4.628906 15.464844 "/>
     <defs>
  <style id="current-color-scheme" type="text/css">
   .ColorScheme-Text { color:#424242; } .ColorScheme-Highlight { color:#eeeeee; }
  </style>
 </defs>
<path style="fill:currentColor" class="ColorScheme-Text" d="M 19.125 16.125 C 15.488281 16.125 12.5625 19.054688 12.5625 22.691406 L 12.5625 22.792969 C 12.5625 26.429688 15.488281 29.355469 19.125 29.355469 L 19.226562 29.355469 C 22.863281 29.355469 25.792969 26.429688 25.792969 22.792969 L 25.792969 22.691406 C 25.792969 19.054688 22.863281 16.125 19.226562 16.125 Z M 19.144531 18.773438 L 19.207031 18.773438 C 21.390625 18.773438 23.144531 20.527344 23.144531 22.710938 L 23.144531 22.773438 C 23.144531 24.953125 21.390625 26.710938 19.207031 26.710938 L 19.144531 26.710938 C 16.964844 26.710938 15.207031 24.953125 15.207031 22.773438 L 15.207031 22.710938 C 15.207031 20.527344 16.964844 18.773438 19.144531 18.773438 Z M 19.144531 18.773438 "/>
     <defs>
  <style id="current-color-scheme" type="text/css">
   .ColorScheme-Text { color:#424242; } .ColorScheme-Highlight { color:#eeeeee; }
  </style>
 </defs>
<path style="fill:currentColor" class="ColorScheme-Text" d="M 24.386719 24.25 L 28.972656 26.894531 C 29.289062 27.078125 29.394531 27.484375 29.214844 27.800781 L 28.550781 28.945312 C 28.367188 29.261719 27.964844 29.371094 27.648438 29.1875 L 23.066406 26.542969 C 22.75 26.359375 22.640625 25.953125 22.824219 25.636719 L 23.484375 24.492188 C 23.667969 24.175781 24.070312 24.066406 24.386719 24.25 Z M 24.386719 24.25 "/>
     <defs>
  <style id="current-color-scheme" type="text/css">
   .ColorScheme-Text { color:#424242; } .ColorScheme-Highlight { color:#eeeeee; }
  </style>
 </defs>
<path style="fill:currentColor" class="ColorScheme-Text" d="M 5.292969 2.894531 C 3.828125 2.894531 2.644531 4.078125 2.644531 5.542969 L 2.644531 26.710938 C 2.644531 28.175781 3.828125 29.355469 5.292969 29.355469 L 9.921875 29.355469 L 9.921875 26.710938 L 6.613281 26.710938 C 5.882812 26.710938 5.292969 26.121094 5.292969 25.386719 L 5.292969 6.863281 C 5.292969 6.132812 5.882812 5.542969 6.613281 5.542969 L 25.136719 5.542969 C 25.871094 5.542969 26.460938 6.132812 26.460938 6.863281 L 26.460938 13.480469 L 29.105469 13.480469 L 29.105469 5.542969 C 29.105469 4.078125 27.925781 2.894531 26.460938 2.894531 Z M 5.292969 2.894531 "/>
</g>
</svg>
